Papirus/24x24/panel/process-syncing-error.svg

<?xml version="1.0" encoding="UTF-8" standalone="no"?>
<svg id="svg2" xmlns:rdf="http://www.w3.org/1999/02/22-rdf-syntax-ns#" xmlns="http://www.w3.org/2000/svg" viewBox="0 0 24 24" width="24" version="1.1" xmlns:cc="http://creativecommons.org/ns#" height="24" xmlns:dc="http://purl.org/dc/elements/1.1/">
 <metadata id="metadata12">
  <rdf:RDF>
   <cc:Work rdf:about="">
    <dc:format>image/svg+xml</dc:format>
    <dc:type rdf:resource="http://purl.org/dc/dcmitype/StillImage"/>
    <dc:title/>
   </cc:Work>
  </rdf:RDF>
 </metadata>
 <path id="path6" fill="#5294e2" d="m5 5c-0.554 0-1 0.446-1 1v2.2832c0.2965-0.1755 0.636-0.2832 1-0.2832h1 1 1.5859l1.7071-1.707a1.0001 1.0001 0 0 1 0.707 -0.293h1c0-0.554-0.446-1-1-1h-6zm6 2-2 2h-2-1-1c-0.554 0-1 0.446-1 1v1 1 2 1 3c0 1.108 0.892 2 2 2h12c1.108 0 2-0.892 2-2v-3-1-6c0-0.554-0.446-1-1-1h-8zm0.98 2.3203a0.44445 0.44445 0 0 1 0.045 0 0.44445 0.44445 0 0 1 0.401 0.3047l0.797 2.391 2.519 0.025a0.44445 0.44445 0 0 1 0.26 0.801l-2.025 1.498 0.753 2.404a0.44445 0.44445 0 0 1 -0.683 0.494l-2.049-1.465-2.0527 1.461a0.44445 0.44445 0 0 1 -0.6816 -0.498l0.7593-2.402-2.023-1.5a0.44445 0.44445 0 0 1 0.2617 -0.803l2.5193-0.019 0.801-2.387a0.44445 0.44445 0 0 1 0.398 -0.3047z"/>
</svg>

<?xml version="1.0" encoding="UTF-8" standalone="no"?>
<svg xmlns:dc="http://purl.org/dc/elements/1.1/" xmlns:cc="http://creativecommons.org/ns#" xmlns:rdf="http://www.w3.org/1999/02/22-rdf-syntax-ns#" xmlns:svg="http://www.w3.org/2000/svg" xmlns="http://www.w3.org/2000/svg" id="svg2" viewBox="0 0 24 24" version="1.1" width="24" height="24">
    <metadata id="metadata12">
        <rdf:RDF>
            <cc:Work rdf:about="">
                <dc:format>
                    image/svg+xml
                </dc:format>
                <dc:type rdf:resource="http://purl.org/dc/dcmitype/StillImage"/>
                <dc:title/>
            </cc:Work>
        </rdf:RDF>
    </metadata>
    <path d="M 5,5 C 4.446,5 4,5.446 4,6 L 4,8.2832 C 4.2965,8.1077 4.636,8 5,8 L 6,8 7,8 8.5859,8 10.293,6.293 A 1.0001,1.0001 0 0 1 11,6 l 1,0 C 12,5.446 11.554,5 11,5 L 5,5 Z M 11,7 9,9 7,9 6,9 5,9 C 4.446,9 4,9.446 4,10 l 0,1 0,1 0,2 0,1 0,3 c 0,1.108 0.892,2 2,2 l 12,0 c 1.108,0 2,-0.892 2,-2 l 0,-3 0,-1 0,-6 C 20,7.446 19.554,7 19,7 l -8,0 z m 0.98,2.3203 a 0.44445,0.44445 0 0 1 0.045,0 0.44445,0.44445 0 0 1 0.401,0.3047 l 0.797,2.391 2.519,0.025 a 0.44445,0.44445 0 0 1 0.26,0.801 l -2.025,1.498 0.753,2.404 a 0.44445,0.44445 0 0 1 -0.683,0.494 L 11.998,15.773 9.9453,17.234 A 0.44445,0.44445 0 0 1 9.2637,16.736 L 10.023,14.334 8,12.834 A 0.44445,0.44445 0 0 1 8.2617,12.031 L 10.781,12.012 11.582,9.625 A 0.44445,0.44445 0 0 1 11.98,9.3203 Z" id="path6" style="fill:#5294e2;fill-opacity:1"/>
</svg>
